app/dist/common/images/target-hospitality.svg

<svg height="18" viewBox="0 0 18 18" width="18" xmlns="http://www.w3.org/2000/svg"><path d="m0 0h18v18h-18z" fill="#001641"/><path d="m4 5h10v6.75l-4.67 3.25v-6h2.67v1h-1.67v3.2l2.67-1.95v-5.25h-8v5.26l2.67 1.93v-3.19h-1.67v-1h2.67v6l-4.67-3.25zm8 2h-6v1h6z" fill="#5eaee0"/></svg>

<!-- by TradingView --><svg xmlns="http://www.w3.org/2000/svg" width="18" height="18" viewBox="0 0 18 18"><path fill="#001641" d="M0 0h18v18H0z"/><path d="M4 5h10v6.75L9.33 15V9H12v1h-1.67v3.2L13 11.25V6H5v5.26l2.67 1.93V10H6V9h2.67v6L4 11.75V5zm8 2H6v1h6V7z" fill="#5EAEE0"/></svg>
